X:1
T: Lady Lucinda Ramsay's New Strathspey
C:R. Mackintosh
R:Strathspey
Q: 128
K:Gm
M:4/4
L:1/16
|:Bc|dG3 BG3 D2D2 D2AB|cF3 AF3 C2F2 F2AB|dG3 BG3 D2G2 G2AB|A2Bc dcBA B2G2 G2Bc|
dG3 BG3 D2D2 D2AB|cF3 AF3 C2F2 F2GA|B2AG A2G^F GD3 EC3|D3C D^F3 G2G,2 G,2d2|
gb3 ab3 gd3 BG3|ca3 ga3 fc3 AF3|gb3 ab3 gd3 BG3|ABc2 D2d2 BG3 G3d|
gb3 ab3 gd3 BG3|ca3 ga3 fc3 AF3|G3B cA3 Bd3 ec3|d2g2 ^f2a2 g4 g2:|
